material/.icons/material/chart-bubble.svg

<svg xmlns="http://www.w3.org/2000/svg" viewBox="0 0 24 24"><path d="M7.2 11.2c1.77 0 3.2 1.43 3.2 3.2 0 1.77-1.43 3.2-3.2 3.2-1.77 0-3.2-1.43-3.2-3.2 0-1.77 1.43-3.2 3.2-3.2m7.6 4.8a2 2 0 012 2 2 2 0 01-2 2 2 2 0 01-2-2 2 2 0 012-2m.4-12A4.8 4.8 0 0120 8.8c0 2.65-2.15 4.8-4.8 4.8a4.8 4.8 0 01-4.8-4.8c0-2.65 2.15-4.8 4.8-4.8z"/></svg>

<?xml version="1.0" encoding="UTF-8"?><!DOCTYPE svg PUBLIC "-//W3C//DTD SVG 1.1//EN" "http://www.w3.org/Graphics/SVG/1.1/DTD/svg11.dtd"><svg xmlns="http://www.w3.org/2000/svg" xmlns:xlink="http://www.w3.org/1999/xlink" version="1.1" id="mdi-chart-bubble" width="24" height="24" viewBox="0 0 24 24"><path d="M7.2,11.2C8.97,11.2 10.4,12.63 10.4,14.4C10.4,16.17 8.97,17.6 7.2,17.6C5.43,17.6 4,16.17 4,14.4C4,12.63 5.43,11.2 7.2,11.2M14.8,16A2,2 0 0,1 16.8,18A2,2 0 0,1 14.8,20A2,2 0 0,1 12.8,18A2,2 0 0,1 14.8,16M15.2,4A4.8,4.8 0 0,1 20,8.8C20,11.45 17.85,13.6 15.2,13.6A4.8,4.8 0 0,1 10.4,8.8C10.4,6.15 12.55,4 15.2,4Z" /></svg>
